X: 4
T:Glenbeigh Hornpipe
R:Hornpipe
C:Trad
M:4/4
L:1/8
K:G
|:(3DEF|GABc dgfa|g2B2 d2d2|(3cde AB c2c2|
(3Bcd GA B2BA|GABc dgfa|g2B2 d2d2|(3cde AB cAFG|
(3ABA G2 G2:: (3ABc|d2b2 c2a2|Bggf gdBG|FGAB cAFA|
G3A B3c|d2b2 c2a2|Bggf gdBG|FGAB cAFG|(3ABA G2:|
